X:184
T: NIX IN DER GRUBE
N: K2407
O: Europa, Mitteleuropa, Deutschland, Thueringen, Schlesien
R: Kinder - Lied, Tanz -, Lauf - Spiel
M: 2/4
L: 1/8
K: C
 | G2GA | G2E
E | GGGA | G2Ez
GGGA | G2E
E | GGGA | G2Ez
G2G2 | c4

